Origami/22x22/apps/qsampler.svg

<svg width="22" height="22" version="1.1" viewBox="0 0 22 22" xmlns="http://www.w3.org/2000/svg">
 <path d="M 11,1 A 10,10 0 0 0 1,11 10,10 0 0 0 11,21 10,10 0 0 0 21,11 10,10 0 0 0 11,1 Z" style="fill:#28287b"/>
 <path d="M 1.01075,11.209 A 10,10 0 0 0 1,11.5 10,10 0 0 0 11,21.5 10,10 0 0 0 21,11.5 10,10 0 0 0 20.9895,11.291 10,10 0 0 1 11,21 10,10 0 0 1 1.011,11.209 Z" style="opacity:.2"/>
 <path d="m11 1a10 10 0 0 0 -10 10 10 10 0 0 0 0.01075 0.209 10 10 0 0 1 9.989 -9.709 10 10 0 0 1 9.9895 9.791 10 10 0 0 0 0.0105 -0.291 10 10 0 0 0 -10 -10z" style="fill:#ffffff;opacity:.1"/>
 <path d="m11.444636 4.5000019c-0.26116 8.71e-5 -0.529709 0.01135-0.805791 0.034811-2.4431975 0.207596-4.1953845 1.4588225-5.610647 2.9414915h-1.31e-4c-0.9984705 1.046786-1.7404214 2.5146866-1.9491473 3.9855536-0.3028536 2.1341 0.2661371 4.038986 1.7035038 5.41201 1.218836 1.164277 3.146628 1.575408 5.1698645 1.621026 1.419064 0.03202 2.751431-0.08622 3.944403-0.364602 0.596484-0.139188 1.107998-0.317263 1.483882-0.545539 0.37588-0.228274 0.630425-0.522417 0.638604-0.882732l1.31e-4 -0.0014v-0.0014c1.4e-5 -0.586697-0.334659-1.068374-0.820792-1.460749-1.407526-1.006189-2.72391-1.586111-4.285036-2.385281-0.43024-0.206374-0.818867-0.477038-0.876316-0.908423-0.0735-0.551886 0.756809-1.367241 1.16186-1.412448 0.564234-0.05155 1.776212-0.02898 2.350485 0.02936 0.574277 0.05832 1.070912 0.858367 1.267595 0.936402l0.01526 0.0061 0.0163 0.0024c0.03918 0.0053 0.0972-0.01684 0.122821-0.04559 0.02561-0.0288 0.03039-0.05158 0.03385-0.06715 0.0069-0.03117 0.0046-0.04544 0.0033-0.06118-0.0023-0.03145-0.0082-0.06137-0.01653-0.09911-0.01667-0.07547-0.04448-0.176723-0.08154-0.298749-0.07409-0.244052-0.185025-0.568677-0.31372-0.898581-0.128701-0.329904-0.274472-0.664199-0.420912-0.929753-0.07322-0.1327746-0.146267-0.2484016-0.221413-0.3401831-0.07503-0.091643-0.148978-0.16605-0.257954-0.1947055-0.143321-0.03918-0.349997-0.049405-0.627198-0.04587-0.277865 0.0038-1.170112 0.024425-1.552518 0.062477-0.764818 0.076052-1.58929 0.220519-2.46532 0.4333166-0.8760405 0.212825-1.7023565 0.491527-2.279934 0.850418-0.288789 0.179446-0.5178065 0.379203-0.6543725 0.614119-0.1365475 0.234884-0.1698415 0.511566-0.064748 0.785317v1.33e-4c0.2235075 0.594381 0.789909 1.040866 1.487988 1.423987 1.4595365 0.804522 2.9665605 1.317725 4.3449815 2.179541 0.796715 0.61441 1.353531 0.894778 1.051555 1.628097-0.15365 0.373123-1.041194 0.676183-1.338895 0.776028-0.815521 0.273515-1.855995 0.244843-2.579012 0.219711-1.675936-0.073026-2.9526845-0.903104-4.103537-2.222844-0.715104-0.820043-0.812283-1.663056-0.890056-2.87058-0.076187-1.182838 0.191845-2.51873 0.845951-3.5006705 1.4540765-2.182873 3.243982-3.4303535 5.753342-3.767597 2.960952-0.3832945 4.984146 0.692513 6.278868 1.8517155 0.647364 0.5796015 1.11048 1.2808985 1.40978 1.7297075 0.149647 0.224409 0.258346 0.4105855 0.32898 0.5373595 0.03531 0.06338 0.06093 0.111746 0.07821 0.143917 0.0087 0.01608 0.0146 0.02718 0.0214 0.03871 0.0033 0.0058-0.0019 0.0049 0.02323 0.0313 0.0063 0.0066 0.0464 0.03202 0.04654 0.03206 1.31e-4 5.2e-5 0.169176-0.05744 0.169237-0.05754 6.1e-5 -1.32e-4 0.01944-0.0646 0.01896-0.07625-4.59e-4 -0.01162-0.0014-0.01713-0.0023-0.02168-0.0073-0.03819-0.01081-0.03667-0.01732-0.05221-0.0065-0.01556-0.01484-0.03435-0.02551-0.05703-0.02142-0.0454-0.05194-0.106339-0.09225-0.181323-0.08062-0.1499698-0.200303-0.3554383-0.361421-0.5968478-0.322228-0.482815-0.810154-1.209462-1.4826-1.817386-1.176772-1.0638675-2.924011-2.0701455-5.315256-2.1374715-0.0854-0.0024-0.171672-0.00365-0.258721-0.00365z" style="opacity:.2"/>
 <path d="m11.444636 3.9999999c-0.26116 8.71e-5 -0.529709 0.01135-0.805791 0.034811-2.4431975 0.207596-4.1953845 1.4588225-5.610647 2.9414915h-1.31e-4c-0.9984705 1.046786-1.7404214 2.5146886-1.9491473 3.9855556-0.3028536 2.1341 0.2661371 4.038986 1.7035038 5.41201 1.218836 1.164277 3.146628 1.575408 5.1698645 1.621026 1.419064 0.03202 2.751431-0.08622 3.944403-0.364602 0.596484-0.139188 1.107998-0.317263 1.483882-0.545539 0.37588-0.228274 0.630425-0.522417 0.638604-0.882732l1.31e-4 -0.0014v-0.0014c1.4e-5 -0.586697-0.334659-1.068374-0.820792-1.460749-1.407526-1.006189-2.72391-1.586111-4.285036-2.385281-0.43024-0.206374-0.818867-0.477038-0.876316-0.908423-0.0735-0.551886 0.756809-1.367241 1.16186-1.412448 0.564234-0.05155 1.776212-0.02898 2.350485 0.02936 0.574277 0.05832 1.070912 0.858367 1.267595 0.936402l0.01526 0.0061 0.0163 0.0024c0.03918 0.0053 0.0972-0.01684 0.122821-0.04559 0.02561-0.0288 0.03039-0.05158 0.03385-0.06715 0.0069-0.03117 0.0046-0.04544 0.0033-0.06118-0.0023-0.03145-0.0082-0.06137-0.01653-0.09911-0.01667-0.07547-0.04448-0.176723-0.08154-0.298749-0.07409-0.244052-0.185025-0.568677-0.31372-0.898581-0.128701-0.329904-0.274472-0.6642001-0.420912-0.9297546-0.07322-0.132775-0.146267-0.248402-0.221413-0.3401835-0.07503-0.091643-0.148978-0.16605-0.257954-0.1947055-0.143321-0.03918-0.349997-0.049405-0.627198-0.04587-0.277865 0.0038-1.170112 0.024425-1.552518 0.062477-0.764818 0.076052-1.58929 0.220519-2.46532 0.4333165-0.8760405 0.212826-1.7023565 0.4915291-2.279934 0.8504201-0.288789 0.179446-0.5178065 0.379203-0.6543725 0.614119-0.1365475 0.234884-0.1698415 0.511566-0.0647485 0.785317v1.33e-4c0.2235075 0.594381 0.789909 1.040866 1.487988 1.423987 1.459537 0.804522 2.966561 1.317725 4.344982 2.179541 0.796715 0.61441 1.353531 0.894778 1.051555 1.628097-0.15365 0.373123-1.041194 0.676183-1.338895 0.776028-0.815521 0.273515-1.855995 0.244843-2.579012 0.219711-1.675936-0.073026-2.9526845-0.903104-4.103537-2.222844-0.715104-0.820043-0.812283-1.663056-0.890056-2.87058-0.0761865-1.182838 0.191845-2.51873 0.845951-3.5006725 1.4540765-2.182873 3.243982-3.4303535 5.753342-3.767597 2.960952-0.3832945 4.984146 0.692513 6.278868 1.8517155 0.647364 0.5796015 1.11048 1.2808985 1.40978 1.7297075 0.149647 0.224409 0.258346 0.410586 0.32898 0.5373605 0.03531 0.063382 0.06093 0.1117465 0.07821 0.143917 0.0087 0.01608 0.0146 0.027175 0.0214 0.038705 0.0033 0.00578-0.0019 0.0049 0.02323 0.031305 0.0063 0.00659 0.0464 0.03202 0.04654 0.032065 1.31e-4 5.2e-5 0.169176-0.057438 0.169237-0.057543 6.1e-5 -1.325e-4 0.01944-0.064602 0.01896-0.076246-4.59e-4 -0.01162-0.0014-0.017125-0.0023-0.021675-0.0073-0.03819-0.01081-0.03667-0.01732-0.052212-0.0065-0.01556-0.01484-0.034345-0.02551-0.057026-0.021416-0.045395-0.051938-0.1063395-0.092246-0.1813245-0.08062-0.1499695-0.200303-0.355438-0.361421-0.5968475-0.322228-0.482815-0.810154-1.209462-1.4826-1.817386-1.176772-1.0638675-2.924011-2.0701455-5.315256-2.1374715-0.0854-0.0024-0.171672-0.00365-0.258721-0.00365z" style="fill:#9868ff"/>
</svg>

<svg xmlns="http://www.w3.org/2000/svg" width="22" height="22" version="1.1" viewBox="0 0 22 22">
 <path style="fill:#28287b" d="M 11,1 A 10,10 0 0 0 1,11 10,10 0 0 0 11,21 10,10 0 0 0 21,11 10,10 0 0 0 11,1 Z"/>
 <path style="opacity:0.2" d="M 1.01075,11.209 A 10,10 0 0 0 1,11.5 10,10 0 0 0 11,21.5 10,10 0 0 0 21,11.5 10,10 0 0 0 20.9895,11.291 10,10 0 0 1 11,21 10,10 0 0 1 1.011,11.209 Z"/>
 <path style="opacity:0.1;fill:#ffffff" d="m 11,1 a 10,10 0 0 0 -10,10 10,10 0 0 0 0.01075,0.209 10,10 0 0 1 9.989,-9.709 10,10 0 0 1 9.9895,9.791 10,10 0 0 0 0.0105,-0.291 10,10 0 0 0 -10,-10 z"/>
 <path style="opacity:0.2" d="m 11.444636,4.5000019 c -0.26116,8.71e-5 -0.529709,0.01135 -0.805791,0.034811 C 8.1956475,4.7424089 6.4434605,5.9936354 5.028198,7.4763044 H 5.028067 C 4.0295965,8.5230904 3.2876456,9.990991 3.0789197,11.461858 c -0.3028536,2.1341 0.2661371,4.038986 1.7035038,5.41201 1.218836,1.164277 3.146628,1.575408 5.1698645,1.621026 1.419064,0.03202 2.751431,-0.08622 3.944403,-0.364602 0.596484,-0.139188 1.107998,-0.317263 1.483882,-0.545539 0.37588,-0.228274 0.630425,-0.522417 0.638604,-0.882732 l 1.31e-4,-0.0014 v -0.0014 c 1.4e-5,-0.586697 -0.334659,-1.068374 -0.820792,-1.460749 -1.407526,-1.006189 -2.72391,-1.586111 -4.285036,-2.385281 -0.43024,-0.206374 -0.818867,-0.477038 -0.876316,-0.908423 -0.0735,-0.551886 0.756809,-1.367241 1.16186,-1.412448 0.564234,-0.05155 1.776212,-0.02898 2.350485,0.02936 0.574277,0.05832 1.070912,0.858367 1.267595,0.936402 l 0.01526,0.0061 0.0163,0.0024 c 0.03918,0.0053 0.0972,-0.01684 0.122821,-0.04559 0.02561,-0.0288 0.03039,-0.05158 0.03385,-0.06715 0.0069,-0.03117 0.0046,-0.04544 0.0033,-0.06118 -0.0023,-0.03145 -0.0082,-0.06137 -0.01653,-0.09911 -0.01667,-0.07547 -0.04448,-0.176723 -0.08154,-0.298749 -0.07409,-0.244052 -0.185025,-0.568677 -0.31372,-0.898581 C 14.468144,9.706318 14.322373,9.372023 14.175933,9.106469 14.102713,8.9736944 14.029666,8.8580674 13.95452,8.7662859 c -0.07503,-0.091643 -0.148978,-0.16605 -0.257954,-0.1947055 -0.143321,-0.03918 -0.349997,-0.049405 -0.627198,-0.04587 -0.277865,0.0038 -1.170112,0.024425 -1.552518,0.062477 C 10.752032,8.6642394 9.92756,8.8087064 9.05153,9.021504 8.1754895,9.234329 7.3491735,9.513031 6.771596,9.871922 6.482807,10.051368 6.2537895,10.251125 6.1172235,10.486041 5.980676,10.720925 5.947382,10.997607 6.0524755,11.271358 v 1.33e-4 c 0.2235075,0.594381 0.789909,1.040866 1.487988,1.423987 C 9,13.5 10.507024,14.013203 11.885445,14.875019 c 0.796715,0.61441 1.353531,0.894778 1.051555,1.628097 -0.15365,0.373123 -1.041194,0.676183 -1.338895,0.776028 C 10.782584,17.552659 9.74211,17.523987 9.019093,17.498855 7.343157,17.425829 6.0664085,16.595751 4.915556,15.276011 4.200452,14.455968 4.103273,13.612955 4.0255,12.405431 3.949313,11.222593 4.217345,9.886701 4.871451,8.9047605 6.3255275,6.7218875 8.115433,5.474407 10.624793,5.1371635 c 2.960952,-0.3832945 4.984146,0.692513 6.278868,1.8517155 0.647364,0.5796015 1.11048,1.2808985 1.40978,1.7297075 0.149647,0.224409 0.258346,0.4105855 0.32898,0.5373595 0.03531,0.06338 0.06093,0.111746 0.07821,0.143917 0.0087,0.01608 0.0146,0.02718 0.0214,0.03871 0.0033,0.0058 -0.0019,0.0049 0.02323,0.0313 0.0063,0.0066 0.0464,0.03202 0.04654,0.03206 1.31e-4,5.2e-5 0.169176,-0.05744 0.169237,-0.05754 6.1e-5,-1.32e-4 0.01944,-0.0646 0.01896,-0.07625 -4.59e-4,-0.01162 -0.0014,-0.01713 -0.0023,-0.02168 -0.0073,-0.03819 -0.01081,-0.03667 -0.01732,-0.05221 -0.0065,-0.01556 -0.01484,-0.03435 -0.02551,-0.05703 -0.02142,-0.0454 -0.05194,-0.106339 -0.09225,-0.181323 -0.08062,-0.1499698 -0.200303,-0.3554383 -0.361421,-0.5968478 -0.322228,-0.482815 -0.810154,-1.209462 -1.4826,-1.817386 -1.176772,-1.0638675 -2.924011,-2.0701455 -5.315256,-2.1374715 -0.0854,-0.0024 -0.171672,-0.00365 -0.258721,-0.00365 z"/>
 <path style="fill:#9868ff" d="m 11.444636,3.9999999 c -0.26116,8.71e-5 -0.529709,0.01135 -0.805791,0.034811 C 8.1956475,4.2424069 6.4434605,5.4936334 5.028198,6.9763024 H 5.028067 C 4.0295965,8.0230884 3.2876456,9.490991 3.0789197,10.961858 c -0.3028536,2.1341 0.2661371,4.038986 1.7035038,5.41201 1.218836,1.164277 3.146628,1.575408 5.1698645,1.621026 1.419064,0.03202 2.751431,-0.08622 3.944403,-0.364602 0.596484,-0.139188 1.107998,-0.317263 1.483882,-0.545539 0.37588,-0.228274 0.630425,-0.522417 0.638604,-0.882732 l 1.31e-4,-0.0014 v -0.0014 c 1.4e-5,-0.586697 -0.334659,-1.068374 -0.820792,-1.460749 -1.407526,-1.006189 -2.72391,-1.586111 -4.285036,-2.385281 -0.43024,-0.206374 -0.818867,-0.477038 -0.876316,-0.908423 -0.0735,-0.551886 0.756809,-1.367241 1.16186,-1.412448 0.564234,-0.05155 1.776212,-0.02898 2.350485,0.02936 0.574277,0.05832 1.070912,0.858367 1.267595,0.936402 l 0.01526,0.0061 0.0163,0.0024 c 0.03918,0.0053 0.0972,-0.01684 0.122821,-0.04559 0.02561,-0.0288 0.03039,-0.05158 0.03385,-0.06715 0.0069,-0.03117 0.0046,-0.04544 0.0033,-0.06118 -0.0023,-0.03145 -0.0082,-0.06137 -0.01653,-0.09911 -0.01667,-0.07547 -0.04448,-0.176723 -0.08154,-0.298749 C 14.836475,10.190751 14.72554,9.866126 14.596845,9.536222 14.468144,9.206318 14.322373,8.8720219 14.175933,8.6064674 14.102713,8.4736924 14.029666,8.3580654 13.95452,8.2662839 c -0.07503,-0.091643 -0.148978,-0.16605 -0.257954,-0.1947055 -0.143321,-0.03918 -0.349997,-0.049405 -0.627198,-0.04587 -0.277865,0.0038 -1.170112,0.024425 -1.552518,0.062477 C 10.752032,8.1642374 9.92756,8.3087044 9.05153,8.5215019 8.1754895,8.7343279 7.3491735,9.013031 6.771596,9.371922 6.482807,9.551368 6.2537895,9.751125 6.1172235,9.986041 5.980676,10.220925 5.947382,10.497607 6.052475,10.771358 v 1.33e-4 c 0.2235075,0.594381 0.789909,1.040866 1.487988,1.423987 C 9,13 10.507024,13.513203 11.885445,14.375019 c 0.796715,0.61441 1.353531,0.894778 1.051555,1.628097 -0.15365,0.373123 -1.041194,0.676183 -1.338895,0.776028 C 10.782584,17.052659 9.74211,17.023987 9.019093,16.998855 7.343157,16.925829 6.0664085,16.095751 4.915556,14.776011 4.200452,13.955968 4.103273,13.112955 4.0255,11.905431 3.9493135,10.722593 4.217345,9.386701 4.871451,8.4047585 6.3255275,6.2218855 8.115433,4.974405 10.624793,4.6371615 c 2.960952,-0.3832945 4.984146,0.692513 6.278868,1.8517155 0.647364,0.5796015 1.11048,1.2808985 1.40978,1.7297075 0.149647,0.224409 0.258346,0.410586 0.32898,0.5373605 0.03531,0.063382 0.06093,0.1117465 0.07821,0.143917 0.0087,0.01608 0.0146,0.027175 0.0214,0.038705 0.0033,0.00578 -0.0019,0.0049 0.02323,0.031305 0.0063,0.00659 0.0464,0.03202 0.04654,0.032065 1.31e-4,5.2e-5 0.169176,-0.057438 0.169237,-0.057543 6.1e-5,-1.325e-4 0.01944,-0.064602 0.01896,-0.076246 -4.59e-4,-0.01162 -0.0014,-0.017125 -0.0023,-0.021675 -0.0073,-0.03819 -0.01081,-0.03667 -0.01732,-0.052212 -0.0065,-0.01556 -0.01484,-0.034345 -0.02551,-0.057026 C 18.933452,8.69184 18.90293,8.6308955 18.862622,8.5559105 18.782002,8.405941 18.662319,8.2004725 18.501201,7.959063 18.178973,7.476248 17.691047,6.749601 17.018601,6.141677 15.841829,5.0778095 14.09459,4.0715315 11.703345,4.0042055 c -0.0854,-0.0024 -0.171672,-0.00365 -0.258721,-0.00365 z"/>
</svg>
